dist/youtube-icon.5f186f89.svg

<svg width="20" height="15" viewBox="0 0 20 15" fill="none" xmlns="http://www.w3.org/2000/svg">
<path d="M19.3735 2.21072C19.1547 1.35347 18.5133 0.677705 17.7001 0.446874C16.2143 0.0184326 10.271 0.0184326 10.271 0.0184326C10.271 0.0184326 4.32802 0.0184326 2.84224 0.430631C2.04459 0.661218 1.38763 1.35359 1.16883 2.21072C0.777832 3.77646 0.777832 7.0236 0.777832 7.0236C0.777832 7.0236 0.777832 10.2871 1.16883 11.8365C1.38786 12.6936 2.02894 13.3694 2.84235 13.6002C4.34366 14.0288 10.2713 14.0288 10.2713 14.0288C10.2713 14.0288 16.2143 14.0288 17.7001 13.6166C18.5135 13.3859 19.1547 12.7101 19.3737 11.853C19.7646 10.2871 19.7646 7.04009 19.7646 7.04009C19.7646 7.04009 19.7802 3.77646 19.3735 2.21072ZM8.37883 10.0234V4.02378L13.3209 7.0236L8.37883 10.0234Z" fill="#2C4CBC"/>
</svg>

<svg xmlns="http://www.w3.org/2000/svg" width="20" height="15" fill="none" xmlns:v="https://vecta.io/nano"><path d="M19.374 2.211c-.219-.857-.86-1.533-1.673-1.764-1.486-.428-7.429-.428-7.429-.428s-5.943 0-7.429.412c-.798.231-1.455.923-1.673 1.78C.778 3.776.778 7.024.778 7.024s0 3.264.391 4.813c.219.857.86 1.533 1.674 1.764 1.501.429 7.429.429 7.429.429s5.943 0 7.429-.412c.813-.231 1.455-.906 1.674-1.764.391-1.566.391-4.813.391-4.813s.016-3.264-.391-4.829zM8.379 10.023v-6l4.942 3-4.942 3z" fill="#2c4cbc"/></svg>
